X:514
L:1/4
M:2/4
K:G
 (g/>e/) |: d (3:2:2B G/ | (3:2:4A G/ E G/ | G (3:2:2B d/ | (3:2:4e f/ g e/ | d (3:2:2B G/ | 
 (3:2:4A G/ E d/ | e/<a/ (3:2:2a g/ | (3:2:4f d/ e c/ | d (3:2:2B G/ | (3:2:4A G/ E F/ | 
 G (3:2:2B d/ | (3:2:4e f/ g e/ | d (3:2:2B G/ | (3:2:4A G/ E F/ | (3:2:4G B/ A F/ |1 
 g (3:2:2g e/ :|2 G (3:2:2e f/ |:

